!!!OTL: Lianbing ge
!!!ARE: Asia, China,ÿHubei Yunmeng
!! I, 426
!!!SCT: C2168
!!!YEM: Copyright 1995, estate of Helmut Schaffrath.
**kern
*ICvox
*Ivox
*M2/4
*k[f#c#g#]
*A:
{4b
4ee
=1
4b
4ee
=2
8.cc#
16b
8a
8f#
=3
4b
8b
8r}
=4
{8.b
16cc#
8ee
8cc#
=5
4b
4r}
=6
{4.cc#
8b
=7
4cc#
4ee
=8
4.e
8f#
=9
2a}
=10
{4.b
8a
=11
8.b
16a
8f#
8a
=12
2e
=13
8f#
8e
8a
8f#
=14
4e
4r}
==
!!!AGN: Xiaodiao
!!!ONB: ESAC (Essen Associative Code) Database: SENGANSU
!!!AMT: simple duple
!!!AIN: vox
!!!EED: Helmut Schaffrath
!!!EEV: 1.0
*-
